assets/icons/animation.svg

<svg width="20" height="20" viewBox="0 0 20 20" fill="none" xmlns="http://www.w3.org/2000/svg">
<path d="M2 5.20039C2.48 5.60039 2.96 6.00039 4 6.00039C6 6.00039 6 4.40039 8 4.40039C10.08 4.40039 9.92 6.00039 12 6.00039C14 6.00039 14 4.40039 16 4.40039C17.04 4.40039 17.52 4.80039 18 5.20039" stroke="currentColor" stroke-width="1.3" stroke-linecap="round" stroke-linejoin="round"/>
<path d="M2 10.0002C2.48 10.4002 2.96 10.8002 4 10.8002C6 10.8002 6 9.2002 8 9.2002C10.08 9.2002 9.92 10.8002 12 10.8002C14 10.8002 14 9.2002 16 9.2002C17.04 9.2002 17.52 9.6002 18 10.0002" stroke="currentColor" stroke-width="1.3" stroke-linecap="round" stroke-linejoin="round"/>
<path d="M2 14.8C2.48 15.2 2.96 15.6 4 15.6C6 15.6 6 14 8 14C10.08 14 9.92 15.6 12 15.6C14 15.6 14 14 16 14C17.04 14 17.52 14.4 18 14.8" stroke="currentColor" stroke-width="1.3" stroke-linecap="round" stroke-linejoin="round"/>
</svg>

<svg xmlns="http://www.w3.org/2000/svg" width="20" height="20" fill="none" viewBox="0 0 20 20"><path stroke="currentColor" stroke-linecap="round" stroke-linejoin="round" stroke-width="1.3" d="M2 5.2c.48.4.96.8 2 .8 2 0 2-1.6 4-1.6 2.08 0 1.92 1.6 4 1.6 2 0 2-1.6 4-1.6 1.04 0 1.52.4 2 .8M2 10c.48.4.96.8 2 .8 2 0 2-1.6 4-1.6 2.08 0 1.92 1.6 4 1.6 2 0 2-1.6 4-1.6 1.04 0 1.52.4 2 .8M2 14.8c.48.4.96.8 2 .8 2 0 2-1.6 4-1.6 2.08 0 1.92 1.6 4 1.6 2 0 2-1.6 4-1.6 1.04 0 1.52.4 2 .8"/></svg>
